symbols/web/library_add_check/materialsymbolsrounded/library_add_check_wght100_20px.svg

<svg xmlns="http://www.w3.org/2000/svg" height="20" width="20"><path d="M9.708 10.333q.188.209.48.209.291 0 .479-.209l3.229-3.229q.083-.083.083-.198 0-.114-.125-.239-.125-.125-.25-.125t-.229.125l-3.187 3.208-1.542-1.542q-.125-.083-.24-.093-.114-.011-.218.093-.126.125-.115.229.01.105.135.25ZM7.042 13.75q-.584 0-.959-.375t-.375-.958V4.083q0-.583.375-.958t.959-.375h8.333q.583 0 .958.375t.375.958v8.334q0 .583-.375.958t-.958.375Zm0-.667h8.333q.292 0 .479-.187.188-.188.188-.479V4.083q0-.291-.188-.479-.187-.187-.479-.187H7.042q-.292 0-.48.187-.187.188-.187.479v8.334q0 .291.187.479.188.187.48.187Zm-2.417 3.084q-.583 0-.958-.375t-.375-.959V6.167q0-.125.104-.229.104-.105.229-.105t.229.105q.104.104.104.229v8.666q0 .292.188.479.187.188.479.188h8.667q.125 0 .229.104.104.104.104.229t-.104.229q-.104.105-.229.105Zm1.75-12.75V13.083 3.417Z"/></svg>

<svg xmlns="http://www.w3.org/2000/svg" height="20" width="20"><path d="M9.708 10.333Q9.896 10.542 10.188 10.542Q10.479 10.542 10.667 10.333L13.896 7.104Q13.979 7.021 13.979 6.906Q13.979 6.792 13.854 6.667Q13.729 6.542 13.604 6.542Q13.479 6.542 13.375 6.667L10.188 9.875L8.646 8.333Q8.521 8.25 8.406 8.24Q8.292 8.229 8.188 8.333Q8.062 8.458 8.073 8.562Q8.083 8.667 8.208 8.812ZM7.042 13.75Q6.458 13.75 6.083 13.375Q5.708 13 5.708 12.417V4.083Q5.708 3.5 6.083 3.125Q6.458 2.75 7.042 2.75H15.375Q15.958 2.75 16.333 3.125Q16.708 3.5 16.708 4.083V12.417Q16.708 13 16.333 13.375Q15.958 13.75 15.375 13.75ZM7.042 13.083H15.375Q15.667 13.083 15.854 12.896Q16.042 12.708 16.042 12.417V4.083Q16.042 3.792 15.854 3.604Q15.667 3.417 15.375 3.417H7.042Q6.75 3.417 6.562 3.604Q6.375 3.792 6.375 4.083V12.417Q6.375 12.708 6.562 12.896Q6.75 13.083 7.042 13.083ZM4.625 16.167Q4.042 16.167 3.667 15.792Q3.292 15.417 3.292 14.833V6.167Q3.292 6.042 3.396 5.938Q3.5 5.833 3.625 5.833Q3.75 5.833 3.854 5.938Q3.958 6.042 3.958 6.167V14.833Q3.958 15.125 4.146 15.312Q4.333 15.5 4.625 15.5H13.292Q13.417 15.5 13.521 15.604Q13.625 15.708 13.625 15.833Q13.625 15.958 13.521 16.062Q13.417 16.167 13.292 16.167ZM6.375 3.417Q6.375 3.417 6.375 3.604Q6.375 3.792 6.375 4.083V12.417Q6.375 12.708 6.375 12.896Q6.375 13.083 6.375 13.083Q6.375 13.083 6.375 12.896Q6.375 12.708 6.375 12.417V4.083Q6.375 3.792 6.375 3.604Q6.375 3.417 6.375 3.417Z"/></svg>
